X: 21561
T: STONY STEPS HORNPIPE
C: J. Hill
R: hornpipe, reel
B: K\"ohler's Violin Repository, v.2, 1885 p.156 #1
F: http://www.archive.org/details/klersviolinrepos02rugg
Z: 2012 John Chambers <jc:trillian.mit.edu>
M: C|
L: 1/8
K: Bb
uF2 |\
B2(dB) fdbf | (ge)cf (BA)GF | G(EDE) C2(cd) | (ec)dB (BA)GF |\
B2(dB) fdbf | (ge)cf (BA)GF | G(EDE) C2(cd) | (ec)BA B2 :|
|: z2 |\
vB,CDE FGAB | (cd)ef d2B2 | (de)cA B2(ga) | (bg)f=e f4 |\
(fd)bf (ed)gf | (ed)cB (AG)FE | (DF)BD (EG)ce | (dc)BA B2 :|

%%sep 2 1 500

